X:245
T: Wink her Aside
T: Sm\'eid i Leataobh \'i
S: B.Breathnach:"Ceol Rince na hEireann" IV/21
Z: B.Black
N: No repeats
L: 1/8
M: 6/8
R: jig
K: G
c|BGE EDE|ABA ABc|BGE EDE|GAG G2c|
BGE EDE|ABA ABd|edc BcA|BGG G2 ||
D|GBd efg|edc BcA|GBd efg|fdd d3|
GBd efg|edc BcA|BGE EDE|GAG G2 ||
